lib/radiotmp/nrk-hardware-laptop-expressive.svg

<svg width="24" height="24" viewBox="0 0 24 24" fill="none" xmlns="http://www.w3.org/2000/svg">
<path fill-rule="evenodd" clip-rule="evenodd" d="M3 16H5L4.99558 7.00049C4.99531 6.44801 5.4431 6 5.99558 6H18.0044C18.5569 6 19.0047 6.44801 19.0044 7.00049L19 16H21L21.0037 7.00123C21.0044 5.34389 19.661 4 18.0037 4H5.99632C4.33898 4 2.99564 5.34389 2.99632 7.00123L3 16ZM1 19.5C1 18.6716 1.67157 18 2.5 18H10C10 18.5523 10.4477 19 11 19H13C13.5523 19 14 18.5523 14 18H21.5C22.3284 18 23 18.6716 23 19.5C23 20.3284 22.3284 21 21.5 21H2.5C1.67157 21 1 20.3284 1 19.5Z" fill="black"/>
</svg>

<svg xmlns="http://www.w3.org/2000/svg" viewBox="0 0 24 24"><path fill="#000" fill-rule="evenodd" d="M3 16h2l-.004-9a1 1 0 0 1 1-1h12.008a1 1 0 0 1 1 1L19 16h2l.004-8.999a3 3 0 0 0-3-3.001H5.996a3 3 0 0 0-3 3.001L3 16Zm-2 3.5A1.5 1.5 0 0 1 2.5 18H10a1 1 0 0 0 1 1h2a1 1 0 0 0 1-1h7.5a1.5 1.5 0 0 1 0 3h-19A1.5 1.5 0 0 1 1 19.5Z" clip-rule="evenodd"/></svg>
